X:59
T: Die Bluthochzeit
N: Q0046
O: Mitteleuropa, Deutschland (BRD) , Rheinprovinz, Siebengebirge
R: Ballade, Entfuehrung, Mord, Vergeltung
M: 4/4
L: 1/16
K: G
D2 | G6A2_B6A2 | G2A2_B2c2d4z2
d2 | d4c2_B2A6d2 | d4c2_B2A4z2
A2 | d6e2=f6e2 | d4c2_B2A4z2
d2 | _e2d2c2_B2A4d4 | _B4A3GG4z2

